;FLAVOR:UltiGCode
;TIME:8511
;MATERIAL:43016
;MATERIAL2:0
;NOZZLE_DIAMETER:0.8
;Generated with Cura_SteamEngine 3.3.1
M82 ;absolute extrusion mode

G92 E0
G10
;LAYER_COUNT:183
;LAYER:0
M107
G0 F3600 X70.942 Y60.263 Z0.3
;TYPE:SKIRT
G11
G1 F1800 X71.29 Y59.89 E0.12243
G1 X71.524 Y59.656 E0.20185
G1 X72.103 Y59.134 E0.38895
G1 X72.732 Y58.674 E0.57597
G1 X73.405 Y58.28 E0.76314
G1 X74.115 Y57.958 E0.95024
G1 X74.854 Y57.71 E1.13732
G1 X75.614 Y57.539 E1.32428
G1 X76.388 Y57.447 E1.51135
G1 X76.406 Y57.446 E1.51568
G1 X76.452 Y57.318 E1.54832
G1 X76.789 Y56.616 E1.73521
G1 X77.178 Y55.978 E1.91454
G1 X77.725 Y55.173 E2.14813
G1 X78.195 Y54.551 E2.33523
G1 X78.727 Y53.981 E2.52236
G1 X79.315 Y53.469 E2.70948
G1 X79.839 Y53.092 E2.86441
G1 X80.652 Y52.558 E3.09785
G1 X81.324 Y52.164 E3.28481
G1 X82.034 Y51.841 E3.47201
G1 X82.154 Y51.8 E3.50245
G1 X82.172 Y51.52 E3.56979
G1 X82.3 Y50.751 E3.75689
G1 X82.506 Y49.999 E3.94401
G1 X82.788 Y49.272 E4.13116
G1 X83.143 Y48.579 E4.31803
G1 X83.567 Y47.925 E4.50509
G1 X84.056 Y47.317 E4.69235
G1 X84.349 Y47.008 E4.79455
G1 X84.583 Y46.774 E4.87397
G1 X85.162 Y46.252 E5.06107
G1 X85.791 Y45.792 E5.24809
G1 X86.464 Y45.398 E5.43526
G1 X87.174 Y45.076 E5.62236
G1 X87.913 Y44.828 E5.80944
G1 X88.673 Y44.657 E5.9964
G1 X89.447 Y44.565 E6.18347
G1 X89.957 Y44.548 E6.30594
G1 X123.278 Y44.548 E14.30298
G1 X124.056 Y44.588 E14.48994
G1 X124.827 Y44.707 E14.67717
G1 X125.581 Y44.905 E14.86427
G1 X126.31 Y45.179 E15.05118
G1 X127.008 Y45.526 E15.23826
G1 X127.667 Y45.943 E15.42542
G1 X128.279 Y46.426 E15.61254
G1 X128.839 Y46.968 E15.79958
G1 X129.328 Y47.548 E15.98165
G1 X129.569 Y47.865 E16.07722
G1 X130.008 Y48.509 E16.26427
G1 X130.379 Y49.195 E16.45145
G1 X130.678 Y49.915 E16.63856
G1 X130.902 Y50.661 E16.82549
G1 X131.048 Y51.427 E17.01264
G1 X131.075 Y51.741 E17.08828
G1 X131.759 Y52.008 E17.2645
G1 X132.469 Y52.329 E17.45151
G1 X133.143 Y52.721 E17.63864
G1 X133.745 Y53.157 E17.81703
G1 X134.174 Y53.501 E17.94901
G1 X134.757 Y54.019 E18.13618
G1 X135.283 Y54.594 E18.32321
G1 X135.776 Y55.263 E18.52266
G1 X136.315 Y56.085 E18.75856
G1 X136.708 Y56.757 E18.9454
G1 X137.028 Y57.464 E19.13165
G1 X137.132 Y57.468 E19.15663
G1 X137.903 Y57.58 E19.34361
G1 X138.659 Y57.771 E19.53075
G1 X139.391 Y58.038 E19.71776
G1 X140.092 Y58.379 E19.90484
G1 X140.755 Y58.79 E20.09206
G1 X141.372 Y59.266 E20.27908
G1 X141.741 Y59.605 E20.39934
G1 X141.981 Y59.84 E20.47996
G1 X142.509 Y60.413 E20.66696
G1 X142.976 Y61.037 E20.85402
G1 X143.377 Y61.706 E21.04121
G1 X143.706 Y62.412 E21.22814
G1 X143.962 Y63.149 E21.41539
G1 X144.141 Y63.907 E21.60232
G1 X144.241 Y64.68 E21.78938
G1 X144.264 Y65.27 E21.93109
G1 X144.264 Y99.02 E30.03109
G1 X144.224 Y99.798 E30.21806
G1 X144.105 Y100.569 E30.40529
G1 X143.907 Y101.323 E30.59238
G1 X143.633 Y102.052 E30.77929
G1 X143.286 Y102.75 E30.96637
G1 X142.869 Y103.409 E31.15354
G1 X142.386 Y104.021 E31.34065
G1 X141.936 Y104.494 E31.49734
G1 X141.692 Y104.729 E31.57864
G1 X141.104 Y105.24 E31.7656
G1 X140.466 Y105.689 E31.95284
G1 X139.786 Y106.069 E32.13979
G1 X139.07 Y106.378 E32.32695
G1 X138.327 Y106.612 E32.51391
G1 X137.563 Y106.769 E32.7011
G1 X136.979 Y106.827 E32.84195
G1 X136.87 Y107.122 E32.91743
G1 X136.514 Y107.844 E33.11063
G1 X136.263 Y108.291 E33.23366
G1 X135.847 Y108.95 E33.4207
G1 X135.342 Y109.59 E33.61636
G1 X134.998 Y109.981 E33.74135
G1 X134.454 Y110.539 E33.92838
G1 X134.184 Y110.764 E34.01273
G1 X134.51 Y110.834 E34.09275
G1 X135.593 Y111.152 E34.36364
G1 X136.267 Y111.406 E34.53651
G1 X137.237 Y111.852 E34.79274
G1 X137.858 Y112.192 E34.96265
G1 X138.763 Y112.774 E35.22089
G1 X139.336 Y113.203 E35.39268
G1 X140.171 Y113.929 E35.65824
G1 X140.677 Y114.438 E35.83049
G1 X141.393 Y115.27 E36.09393
G1 X141.817 Y115.842 E36.26481
G1 X142.248 Y116.491 E36.45179
G1 X142.624 Y117.21 E36.64652
G1 X143.206 Y118.484 E36.98268
G1 X143.493 Y119.209 E37.16982
G1 X143.715 Y120.006 E37.36838
G1 X143.868 Y120.7 E37.53894
G1 X143.996 Y121.469 E37.72604
G1 X144.046 Y122.254 E37.91482
G1 X144.1 Y127.244 E39.11249
G1 X144.068 Y128.023 E39.29961
G1 X144.059 Y128.084 E39.3144
G1 X144.083 Y128.284 E39.36275
G1 X144.1 Y128.794 E39.48522
G1 X144.1 Y130.378 E39.86538
G1 X144.06 Y131.156 E40.05234
G1 X143.941 Y131.927 E40.23957
G1 X143.743 Y132.681 E40.42667
G1 X143.469 Y133.41 E40.61358
G1 X143.122 Y134.108 E40.80066
G1 X142.98 Y134.332 E40.86431
G1 X143.213 Y134.677 E40.96423
G1 X143.58 Y135.364 E41.15116
G1 X143.874 Y136.086 E41.33825
G1 X144.093 Y136.834 E41.52531
G1 X144.235 Y137.601 E41.71252
G1 X144.3 Y138.594 E41.95135
G1 X144.3 Y157.531 E46.49623
G1 X144.26 Y158.309 E46.68319
G1 X144.141 Y159.08 E46.87042
G1 X143.943 Y159.834 E47.05752
G1 X143.669 Y160.563 E47.24443
G1 X143.322 Y161.261 E47.43151
G1 X142.984 Y161.795 E47.58318
G1 X143.25 Y162.25 E47.70968
G1 X143.572 Y162.96 E47.89678
G1 X143.82 Y163.699 E48.08386
G1 X143.991 Y164.459 E48.27082
G1 X144.083 Y165.233 E48.45789
G1 X144.1 Y165.743 E48.58036
G1 X144.1 Y167.326 E48.96028
G1 X144.06 Y168.095 E49.14509
G1 X144.083 Y168.284 E49.19078
G1 X144.1 Y168.879 E49.33364
G1 X144.044 Y173.878 E50.53348
G1 X143.995 Y174.656 E50.72057
G1 X143.862 Y175.447 E50.91307
G1 X143.705 Y176.151 E51.08618
G1 X143.496 Y176.902 E51.27327
G1 X143.191 Y177.675 E51.47271
G1 X142.611 Y178.935 E51.80561
G1 X142.249 Y179.625 E51.99262
G1 X141.795 Y180.307 E52.18925
G1 X141.366 Y180.881 E52.36123
G1 X140.868 Y181.48 E52.54819
G1 X140.272 Y182.06 E52.74778
G1 X139.212 Y182.984 E53.08526
G1 X138.599 Y183.465 E53.27227
G1 X137.885 Y183.912 E53.47444
G1 X137.257 Y184.258 E53.64652
G1 X136.237 Y184.725 E53.91576
G1 X135.54 Y184.984 E54.09421
G1 X134.488 Y185.291 E54.35723
G1 X133.789 Y185.441 E54.52881
G1 X133.019 Y185.565 E54.71599
G1 X132.271 Y185.61 E54.89583
G1 X127.311 Y185.66 E56.08629
G1 X126.532 Y185.627 E56.27342
G1 X126.477 Y185.619 E56.28676
G1 X126.276 Y185.643 E56.33534
G1 X125.766 Y185.66 E56.45781
G1 X124.182 Y185.66 E56.83797
G1 X123.404 Y185.62 E57.02493
G1 X122.633 Y185.501 E57.21217
G1 X121.879 Y185.303 E57.39926
G1 X121.15 Y185.029 E57.58617
G1 X120.452 Y184.682 E57.77325
G1 X120.228 Y184.54 E57.8369
G1 X119.883 Y184.773 E57.93682
G1 X119.196 Y185.14 E58.12375
G1 X118.474 Y185.434 E58.31084
G1 X117.726 Y185.653 E58.4979
G1 X116.959 Y185.795 E58.68511
G1 X115.966 Y185.86 E58.92394
G1 X97.029 Y185.859 E63.46882
G1 X96.25 Y185.819 E63.65602
G1 X95.48 Y185.699 E63.84306
G1 X94.726 Y185.502 E64.03009
G1 X93.996 Y185.228 E64.21722
G1 X93.298 Y184.88 E64.40441
G1 X92.766 Y184.543 E64.55555
G1 X92.31 Y184.81 E64.68237
G1 X91.6 Y185.132 E64.86948
G1 X90.861 Y185.38 E65.05656
G1 X90.101 Y185.551 E65.24352
G1 X89.327 Y185.643 E65.43059
G1 X88.817 Y185.66 E65.55305
G1 X87.234 Y185.66 E65.93297
G1 X86.465 Y185.62 E66.11778
G1 X86.276 Y185.643 E66.16348
G1 X85.692 Y185.66 E66.3037
G1 X80.739 Y185.612 E67.49247
G1 X79.961 Y185.564 E67.67955
G1 X79.216 Y185.442 E67.86073
G1 X78.49 Y185.286 E68.03895
G1 X77.407 Y184.968 E68.30984
G1 X76.733 Y184.714 E68.48271
G1 X75.763 Y184.268 E68.73893
G1 X75.142 Y183.928 E68.90885
G1 X74.235 Y183.345 E69.16762
G1 X73.661 Y182.915 E69.33975
G1 X72.828 Y182.19 E69.60478
G1 X72.322 Y181.681 E69.77704
G1 X71.802 Y181.101 E69.96399
G1 X71.303 Y180.407 E70.16914
G1 X70.539 Y179.208 E70.51035
G1 X70.154 Y178.53 E70.69747
G1 X69.827 Y177.78 E70.89384
G1 X69.586 Y177.134 E71.05932
G1 X69.285 Y176.112 E71.31501
G1 X69.132 Y175.417 E71.48581
G1 X69.003 Y174.648 E71.67295
G1 X68.954 Y173.865 E71.86123
G1 X68.9 Y168.876 E73.05866
G1 X68.932 Y168.097 E73.24578
G1 X68.941 Y168.036 E73.26058
G1 X68.917 Y167.836 E73.30892
G1 X68.9 Y167.326 E73.43139
G1 X68.9 Y165.742 E73.81155
G1 X68.94 Y164.964 E73.99852
G1 X69.059 Y164.193 E74.18575
G1 X69.257 Y163.439 E74.37285
G1 X69.531 Y162.71 E74.55976
G1 X69.878 Y162.012 E74.74683
G1 X70.02 Y161.787 E74.81069
G1 X69.788 Y161.443 E74.91027
G1 X69.421 Y160.756 E75.0972
G1 X69.127 Y160.034 E75.2843
G1 X68.908 Y159.286 E75.47135
G1 X68.766 Y158.519 E75.65856
G1 X68.701 Y157.525 E75.89763
G1 X68.703 Y138.588 E80.44251
G1 X68.743 Y137.81 E80.62948
G1 X68.863 Y137.039 E80.81675
G1 X69.06 Y136.286 E81.00355
G1 X69.335 Y135.556 E81.19077
G1 X69.682 Y134.858 E81.37785
G1 X70.018 Y134.327 E81.52866
G1 X69.75 Y133.87 E81.65581
G1 X69.428 Y133.16 E81.84291
G1 X69.18 Y132.421 E82.02999
G1 X69.009 Y131.661 E82.21695
G1 X68.917 Y130.887 E82.40402
G1 X68.9 Y130.377 E82.52649
G1 X68.9 Y128.794 E82.90641
G1 X68.94 Y128.025 E83.09122
G1 X68.917 Y127.836 E83.13691
G1 X68.9 Y127.252 E83.27713
G1 X68.948 Y122.299 E84.46591
G1 X68.996 Y121.521 E84.65298
G1 X69.118 Y120.776 E84.83416
G1 X69.274 Y120.05 E85.01238
G1 X69.592 Y118.967 E85.28327
G1 X69.846 Y118.293 E85.45614
G1 X70.29 Y117.327 E85.7113
G1 X70.629 Y116.707 E85.88089
G1 X71.214 Y115.796 E86.14072
G1 X71.644 Y115.222 E86.31285
G1 X72.369 Y114.389 E86.57789
G1 X72.878 Y113.883 E86.75014
G1 X73.71 Y113.167 E87.01358
G1 X74.282 Y112.743 E87.18446
G1 X74.931 Y112.312 E87.37144
G1 X75.65 Y111.936 E87.56617
G1 X76.924 Y111.354 E87.90233
G1 X77.649 Y111.067 E88.08946
G1 X78.399 Y110.856 E88.27645
G1 X78.986 Y110.746 E88.41978
G1 X79.203 Y110.714 E88.47243
G1 X78.891 Y110.421 E88.57515
G1 X78.216 Y109.731 E88.80681
G1 X77.7 Y109.146 E88.99402
G1 X77.247 Y108.512 E89.18103
G1 X76.861 Y107.835 E89.36807
G1 X76.603 Y107.266 E89.51801
G1 X76.429 Y106.836 E89.62934
G1 X76.191 Y106.826 E89.68651
G1 X75.42 Y106.714 E89.87349
G1 X74.664 Y106.522 E90.06069
G1 X73.932 Y106.255 E90.24769
G1 X73.231 Y105.913 E90.43489
G1 X72.569 Y105.502 E90.6219
G1 X71.952 Y105.025 E90.80907
G1 X71.587 Y104.69 E90.92797
G1 X71.347 Y104.455 E91.00859
G1 X70.819 Y103.882 E91.19559
G1 X70.352 Y103.258 E91.38265
G1 X69.951 Y102.589 E91.56984
G1 X69.622 Y101.883 E91.75678
G1 X69.366 Y101.146 E91.94402
G1 X69.187 Y100.388 E92.13095
G1 X69.087 Y99.615 E92.31801
G1 X69.064 Y99.025 E92.45972
G1 X69.064 Y65.264 E100.56236
G1 X69.104 Y64.486 E100.74933
G1 X69.223 Y63.715 E100.93656
G1 X69.421 Y62.961 E101.12365
G1 X69.695 Y62.232 E101.31056
G1 X70.042 Y61.534 E101.49764
G1 X70.459 Y60.875 E101.68481
G1 X70.942 Y60.263 E101.87192
G0 F3600 X71.856 Y60.456
G1 F1800 X72.09 Y60.222 E101.95134
G1 X72.639 Y59.729 E102.12843
G1 X73.237 Y59.299 E102.3052
G1 X73.879 Y58.937 E102.48209
G1 X74.557 Y58.646 E102.65916
G1 X75.262 Y58.43 E102.83613
G1 X75.986 Y58.291 E103.01306
G1 X76.823 Y58.23 E103.21447
G1 X76.974 Y58.228 E103.25072
G1 X77.205 Y57.59 E103.41356
G1 X77.53 Y56.928 E103.59056
G1 X77.84 Y56.427 E103.73195
G1 X78.387 Y55.622 E103.96554
G1 X78.833 Y55.036 E104.14228
G1 X79.341 Y54.501 E104.31934
G1 X79.904 Y54.025 E104.49628
G1 X80.278 Y53.76 E104.60629
G1 X81.091 Y53.226 E104.83973
G1 X81.728 Y52.856 E105.01653
G1 X82.402 Y52.556 E105.19359
G1 X82.922 Y52.389 E105.32467
G1 X82.923 Y52.307 E105.34435
G1 X82.972 Y51.571 E105.52138
G1 X83.099 Y50.845 E105.69827
G1 X83.304 Y50.137 E105.87517
G1 X83.585 Y49.455 E106.0522
G1 X83.938 Y48.808 E106.22908
G1 X84.359 Y48.202 E106.40618
G1 X84.915 Y47.574 E106.60748
G1 X85.149 Y47.34 E106.6869
G1 X85.698 Y46.847 E106.86399
G1 X86.296 Y46.417 E107.04076
G1 X86.938 Y46.055 E107.21765
G1 X87.616 Y45.764 E107.39472
G1 X88.321 Y45.548 E107.57169
G1 X89.045 Y45.409 E107.74862
G1 X89.957 Y45.348 E107.96799
G1 X123.278 Y45.348 E115.96503
G1 X124.014 Y45.388 E116.14193
G1 X124.742 Y45.507 E116.31897
G1 X125.452 Y45.705 E116.49587
G1 X126.137 Y45.978 E116.67285
G1 X126.788 Y46.324 E116.84978
G1 X127.398 Y46.738 E117.02672
G1 X127.959 Y47.216 E117.2036
G1 X128.691 Y48.033 E117.46687
G1 X128.932 Y48.35 E117.56244
G1 X129.346 Y48.96 E117.73937
G1 X129.691 Y49.611 E117.9162
G1 X129.964 Y50.296 E118.09317
G1 X130.161 Y51.007 E118.27024
G1 X130.28 Y51.734 E118.44705
G1 X130.311 Y52.321 E118.58812
G1 X130.55 Y52.394 E118.6481
G1 X131.468 Y52.753 E118.88467
G1 X132.139 Y53.058 E119.06156
G1 X132.773 Y53.435 E119.23859
G1 X133.245 Y53.781 E119.37905
G1 X133.674 Y54.125 E119.51102
G1 X134.223 Y54.617 E119.68795
G1 X134.716 Y55.165 E119.86486
G1 X135.107 Y55.701 E120.02409
G1 X135.646 Y56.523 E120.26
G1 X136.016 Y57.161 E120.437
G1 X136.315 Y57.835 E120.61397
G1 X136.449 Y58.239 E120.71612
G1 X137.097 Y58.268 E120.8718
G1 X137.826 Y58.381 E121.04885
G1 X138.538 Y58.572 E121.22577
G1 X139.225 Y58.839 E121.40266
G1 X139.879 Y59.178 E121.57946
G1 X140.493 Y59.587 E121.75652
G1 X141.181 Y60.176 E121.97388
G1 X141.421 Y60.411 E122.05449
G1 X141.92 Y60.955 E122.23166
G1 X142.356 Y61.549 E122.4085
G1 X142.725 Y62.187 E122.58539
G1 X143.023 Y62.862 E122.76247
G1 X143.247 Y63.564 E122.93932
G1 X143.393 Y64.287 E123.11635
G1 X143.464 Y65.27 E123.35288
G1 X143.464 Y99.02 E131.45288
G1 X143.424 Y99.756 E131.62978
G1 X143.305 Y100.484 E131.80682
G1 X143.107 Y101.194 E131.98372
G1 X142.834 Y101.879 E132.1607
G1 X142.488 Y102.53 E132.33763
G1 X142.074 Y103.14 E132.51457
G1 X141.381 Y103.918 E132.76462
G1 X141.137 Y104.153 E132.84592
G1 X140.579 Y104.635 E133.02289
G1 X139.972 Y105.053 E133.19977
G1 X139.324 Y105.404 E133.37664
G1 X138.641 Y105.682 E133.55362
G1 X137.932 Y105.885 E133.73061
G1 X137.205 Y106.01 E133.90766
G1 X136.411 Y106.044 E134.09839
G1 X136.377 Y106.152 E134.12556
G1 X136.119 Y106.843 E134.30259
G1 X135.816 Y107.452 E134.46584
G1 X135.565 Y107.899 E134.58887
G1 X135.17 Y108.522 E134.76591
G1 X134.741 Y109.062 E134.93143
G1 X134.397 Y109.453 E135.05642
G1 X133.881 Y109.979 E135.23326
G1 X133.311 Y110.446 E135.41011
G1 X132.834 Y110.766 E135.54797
G1 X131.995 Y111.278 E135.78386
G1 X131.945 Y111.305 E135.7975
G1 X132.253 Y111.308 E135.87142
G1 X132.989 Y111.355 E136.04842
G1 X133.616 Y111.46 E136.201
G1 X134.342 Y111.616 E136.37922
G1 X135.311 Y111.901 E136.62163
G1 X135.985 Y112.155 E136.79449
G1 X136.853 Y112.553 E137.02367
G1 X137.474 Y112.893 E137.19358
G1 X138.283 Y113.415 E137.42465
G1 X138.856 Y113.844 E137.59644
G1 X139.604 Y114.493 E137.83412
G1 X140.11 Y115.002 E138.00637
G1 X140.75 Y115.747 E138.24209
G1 X141.174 Y116.319 E138.41297
G1 X141.58 Y116.934 E138.58983
G1 X141.896 Y117.542 E138.75428
G1 X142.478 Y118.816 E139.09044
G1 X142.748 Y119.503 E139.26759
G1 X142.934 Y120.178 E139.43563
G1 X143.087 Y120.872 E139.60619
G1 X143.206 Y121.6 E139.78323
G1 X143.246 Y122.262 E139.9424
G1 X143.3 Y127.252 E141.14007
G1 X143.268 Y127.989 E141.31712
G1 X143.253 Y128.088 E141.34115
G1 X143.3 Y128.794 E141.51096
G1 X143.3 Y130.378 E141.89112
G1 X143.26 Y131.114 E142.06802
G1 X143.141 Y131.842 E142.24506
G1 X142.943 Y132.552 E142.42196
G1 X142.67 Y133.237 E142.59894
G1 X142.324 Y133.888 E142.77588
G1 X142.008 Y134.354 E142.91101
G1 X142.345 Y134.803 E143.04574
G1 X142.723 Y135.437 E143.22289
G1 X143.029 Y136.107 E143.39967
G1 X143.261 Y136.807 E143.57666
G1 X143.416 Y137.528 E143.75365
G1 X143.5 Y138.594 E144.01028
G1 X143.5 Y157.531 E148.55516
G1 X143.46 Y158.267 E148.73206
G1 X143.341 Y158.995 E148.9091
G1 X143.143 Y159.705 E149.08601
G1 X142.87 Y160.39 E149.26298
G1 X142.524 Y161.041 E149.43992
G1 X142.11 Y161.651 E149.61685
G1 X142.008 Y161.771 E149.65465
G1 X142.231 Y162.082 E149.74649
G1 X142.593 Y162.724 E149.92338
G1 X142.884 Y163.402 E150.10045
G1 X143.1 Y164.107 E150.27742
G1 X143.239 Y164.831 E150.45435
G1 X143.3 Y165.743 E150.67372
G1 X143.3 Y167.326 E151.05364
G1 X143.26 Y168.062 E151.23054
G1 X143.253 Y168.106 E151.24123
G1 X143.3 Y168.87 E151.42494
G1 X143.244 Y173.869 E152.62478
G1 X143.195 Y174.605 E152.80181
G1 X143.081 Y175.273 E152.96444
G1 X142.924 Y175.977 E153.13756
G1 X142.725 Y176.687 E153.31452
G1 X142.464 Y177.34 E153.4833
G1 X141.884 Y178.6 E153.8162
G1 X141.54 Y179.252 E153.99312
G1 X141.154 Y179.828 E154.15953
G1 X140.725 Y180.402 E154.33152
G1 X140.252 Y180.968 E154.50854
G1 X139.746 Y181.457 E154.67743
G1 X138.686 Y182.381 E155.01491
G1 X138.105 Y182.835 E155.19188
G1 X137.499 Y183.211 E155.36304
G1 X136.871 Y183.557 E155.53512
G1 X135.959 Y183.975 E155.77589
G1 X135.262 Y184.234 E155.95435
G1 X134.32 Y184.509 E156.18987
G1 X133.621 Y184.659 E156.36144
G1 X132.893 Y184.774 E156.53833
G1 X132.263 Y184.81 E156.68978
G1 X127.303 Y184.86 E157.88024
G1 X126.566 Y184.827 E158.0573
G1 X126.473 Y184.813 E158.07987
